!!!COM: Palestrina, Giovanni Perluigi da
!!!OPR: Missa Tu es Petrus (1887)
!!!OMD: Kyrie
!!!OTL: Christe
**kern	**kern	**kern	**kern
*Itenor	*Icalto	*Icant	*Icant
!Tenor	!Altus	!Cantus 2	!Cantus 1
*clefGv2	*clefG2	*clefG2	*clefG2
*k[]	*k[]	*k[]	*k[]
*G:mix	*G:mix	*G:mix	*G:mix
*M4/2	*M4/2	*M4/2	*M4/2
=30	=30	=30	=30
1G	1g	1dd	1b
2c	2g	2ee	2cc
2B	2g	2dd	2dd
=31	=31	=31	=31
1c	1g	1cc	1ee
1G	[1g	2b	2dd
.	.	2dd	2b
=32	=32	=32	=32
1.c	0g]	4ee	4cc
.	.	4dd	4b
.	.	4ee	4cc
.	.	4ff	4dd
.	.	1gg	2ee
2B	.	.	2dd
=33	=33	=33	=33
2.A	2r	2ff	2.cc
.	1cc	2ee	.
4G	.	.	4b
2F	.	1dd	2a
2G	2b	.	4g
.	.	.	4f
=34	=34	=34	=34
2A	2.a	0cc	2e
4F	.	.	4a
4G	4g	.	4b
4A	2f	.	4cc
4B	.	.	4dd
[2c	2e	.	4ee
.	.	.	4cc
=35	=35	=35	=35
2c]	2d	2r	1dd
2B	1g	2g	.
1A	.	[1cc	2r
.	2f#	.	2cc
=36	=36	=36	=36
1G	1g	2cc]	2ee
.	.	2b	2dd
1r	2c	1cc	1ee
.	[2cc	.	.
=37	=37	=37	=37
0r	2cc]	1g	2dd
.	2b	.	1gg
.	1a	[1cc	.
.	.	.	2ff
=38	=38	=38	=38
0r	1g	2cc]	2ee
.	.	2b	2.dd
.	2f	2a	.
.	.	.	4cc
.	2g	[2g	2b
=39	=39	=39	=39
2r	2d	2g]	1a
2d	2a	2f#	.
2g	2b	2g	2r
2f#	2a	2d	[2dd
=40	=40	=40	=40
1g	2b	4g	2dd]
.	.	4a	.
.	2g	4b	1gg
.	.	4cc	.
1d	1a	1dd	.
.	.	.	2ff#
=41	=41	=41	=41
1.g	1b	2.dd	1gg
.	.	4cc	.
.	2g	2b	1dd
2f	2a	2a	.
=42	=42	=42	=42
2.e	1b	0g	2.gg
4d	.	.	4ff
[1c	2cc	.	[1ee
.	4c	.	.
.	4d	.	.
=43	=43	=43	=43
2c]	4e	2r	2ee]
.	4f	.	.
2B	1g	2g	2dd
1A	.	[1cc	2ee
.	2f#	.	2cc
=44	=44	=44	=44
1G	1g	2cc]	2r
.	.	2b	2g
2r	2r	2ee	2cc
2G	2d	2dd	2b
=45	=45	=45	=45
2c	2e	2g	2cc
2B	2d	2dd	1g
1c	1e	4cc	.
.	.	4dd	.
.	.	4ee	[2cc
.	.	4ff	.
=46	=46	=46	=46
1G	1d	1gg	2cc]
.	.	.	2b
[1c	2c	1r	2a
.	[2e	.	2g
=47	=47	=47	=47
2c]	2e]	1g	2cc
2B	2d	.	2dd
2A	2c	2cc	1ee
2G	[2e	2b	.
=48	=48	=48	=48
1A	4e]	1cc	1r
.	4c	.	.
.	1f	.	.
2.c	.	2g	2r
.	2e	4cc	2g
4B	.	4dd	.
=49	=49	=49	=49
2A	2c	4ee	2cc
.	.	4ff#	.
2G	2d	1gg	2b
1A	1c	.	[1cc
.	.	2ff	.
=50	=50	=50	=50
1G	2r	2ee	2cc]
.	2d	4dd	4b
.	.	4cc	4a
1r	2g	2.dd	2b
.	2f#	.	2a
.	.	4cc	.
=51	=51	=51	=51
0r	1g	1b	2g
.	.	.	1gg
.	1d	1a	.
.	.	.	2ff
=52	=52	=52	=52
1G	2.g	1b	2ee
.	.	.	2dd
.	4f	.	.
2c	2e	[1g	2cc
2B	2d	.	[2dd
=53	=53	=53	=53
1c	1e	1g]	4dd]
.	.	.	4cc
.	.	.	1cc
1G	1d	2r	.
.	.	[2gg	2b
=54	=54	=54	=54
1.c	2e	2gg]	1cc
.	2a	2ff	.
.	1g	2ee	2r
2B	.	2dd	2g
=55	=55	=55	=55
2A	2r	2cc	2a
2G	2d	2.dd	2b-
2F	2f	.	2a
.	.	4cc	.
2A	2c	[2cc	2f
=56	=56	=56	=56
1G	1d	2cc]	1g
.	.	2b	.
[1F	[1f	2.cc	2.a
.	.	4b	4b
=57	=57	=57	=57
2F]	0f]	0a	0cc
2G	.	.	.
2A	.	.	.
2B	.	.	.
=58	=58	=58	=58
0c	0e	0g	0cc
==	==	==	==
*-	*-	*-	*-
!!!CDT: 1525/^1526/-1594/2/2
!!!OCY: Italia
!!!AGN: Mass (Parody)
!!!AST: renaissance, vocal
!!!ASW: Motet 1572 (Palestrina)
!!!PWK: Masses, Book 11
!!!RNB: Cadence finals: C,D
!!!YOR: Le Opere Complete, v. 28, p. 268
!!!YOO: Rome, Italy: Fratelli Scalera
!!!END: 1992//
!!!EED: John Miller
!!!YEC: Copyright 2000, John Miller
!!!YEN: United States of America
!!!YEM: Rights to all derivative electronic formats reserved.
!!!YEM: Refer to licensing agreement for further details.
!!!YEM: This file must be accompanied by the licensing agreement.
!!!YEM: A copy of the licensing agreement may be found at http://www.music-cog.ohio-state.edu/HumdrumDatabases/Palestrina/license.txt
!!!EMD: converted to Humdrum by Bret Aarden
